packages/bezier-icons/icons/coin.svg

<svg width="24" height="24" viewBox="0 0 24 24" fill="none" xmlns="http://www.w3.org/2000/svg">
<path fill-rule="evenodd" clip-rule="evenodd" d="M4 12C4 16.411 7.589 20 12 20C16.411 20 20 16.411 20 12C20 7.589 16.411 4 12 4C7.589 4 4 7.589 4 12ZM2 12C2 6.486 6.486 2 12 2C17.514 2 22 6.486 22 12C22 17.514 17.514 22 12 22C6.486 22 2 17.514 2 12ZM12.4919 10.9442L13.6069 11.3882C14.7109 11.8322 15.3699 12.5752 15.3699 13.8352C15.3699 15.0622 14.5099 16.1542 12.9999 16.5032V17.0002C12.9999 17.5525 12.5522 18.0002 11.9999 18.0002C11.4476 18.0002 10.9999 17.5525 10.9999 17.0002V16.5262C10.1439 16.3552 9.30088 15.9652 8.62988 15.3462L9.84088 13.8702C10.4769 14.4102 11.3039 14.7822 12.0119 14.7822C12.8039 14.7822 13.1749 14.4822 13.1749 14.0032C13.1749 13.5221 12.748 13.3435 12.0678 13.059C12.0184 13.0383 11.9678 13.0171 11.9159 12.9952L10.7769 12.5152C9.84088 12.1442 8.96588 11.3642 8.96588 10.0692C8.96588 8.91424 9.76788 7.94324 10.9999 7.55524V7.00024C10.9999 6.44796 11.4476 6.00024 11.9999 6.00024C12.5522 6.00024 12.9999 6.44796 12.9999 7.00024V7.44924C13.7729 7.59924 14.5259 7.96524 15.1069 8.54624L14.0389 9.88924C13.4509 9.44524 12.8989 9.20524 12.2039 9.20524C11.5439 9.20524 11.1359 9.46924 11.1359 9.94924C11.1359 10.4145 11.6402 10.6115 12.3647 10.8945C12.4064 10.9108 12.4488 10.9273 12.4919 10.9442Z" fill="#313234"/>
</svg>

<svg xmlns="http://www.w3.org/2000/svg" width="24" height="24" fill="none" viewBox="0 0 24 24"><path fill="#313234" fill-rule="evenodd" d="M4 12c0 4.411 3.589 8 8 8s8-3.589 8-8-3.589-8-8-8-8 3.589-8 8m-2 0C2 6.486 6.486 2 12 2s10 4.486 10 10-4.486 10-10 10S2 17.514 2 12m10.492-1.056 1.115.444c1.104.444 1.763 1.187 1.763 2.447 0 1.227-.86 2.32-2.37 2.668V17a1 1 0 1 1-2 0v-.474c-.856-.17-1.7-.56-2.37-1.18l1.21-1.476c.637.54 1.464.912 2.172.912.792 0 1.163-.3 1.163-.779s-.427-.66-1.107-.944l-.152-.064-1.14-.48c-.935-.37-1.81-1.15-1.81-2.446 0-1.155.802-2.126 2.034-2.514V7a1 1 0 1 1 2 0v.45c.773.15 1.526.515 2.107 1.096L14.039 9.89c-.588-.444-1.14-.684-1.835-.684-.66 0-1.068.264-1.068.744 0 .466.504.662 1.229.946z" clip-rule="evenodd"/></svg>
